X: 613
T: Across The Bridge To Connaught
R: jig
M: 6/8
K: Dmajor
|:fdd edB|Add edB|Add dcd|efg bag|
fdd edB|Add edB|Agf edc|d3 d2e:|
|:fed fed|cag a2g|fed fed|cde A2e|
fed fed|cag a2g|fed edc|d3 d2e:|

